X:1
T:[ID 3-45]
T:[ID 3-45]
T:Bezeichnung standardisiert: Musetto Musetto
T:Urheber unbekannt Datum in der hier transkribierten schriftlichen Quelle: 1767
C:Urheber unbekannt
C:Datum in der hier transkribierten schriftlichen Quelle: 1767
L:1/8
M:2/4
K:D
V:1 treble 
V:1
 f2 df | c2 A2 | FF/D/ AA/F/ | d3 f | gg gf/e/ | f/e/f/g/ fa |"^1)" b/x/b/ x/ b/x/a/g/ | %7
 a/g/a/b/ aA | F/A/d/e/ fe/d/ | g2 fe | f2 AG | F4 :: a/g/ | fAdf | e/d/e/f/ ea/g/ | fAdf | e3 a | %17
 Ta4 | Ta4 | Ta4 | a3 f | gf fe | ed z a | ba ag | gf z A | F/A/d/e/ fe/d/ | g2 fe | f2 AG | F4 :| %29

